X:1
T: Down in the Nettles
N:
C:
S: Play  3  times
A:
O:
R:
M:6/8
K:Am
I:speed 150
%W: A1                                                        A2
% voice 1 (1 lines, 33 notes)
K:Am
M:6/8
L:1/16
e2 |e2 d2 e2 f4 g2 e6e4 e2 d2 e2 c2 B4 A2 A6A4 e2 |e2 d2 e2 f4 g2 e6e4 e2 d2 e2 c2 B4 A2 A6A4 e2 |
%W: B1
% voice 1 (1 lines, 37 notes)
a6a4 a2 d6d4 d2 e2 ^f2 g2 f2 g2 a2 g6g4 g2 |g4 e2 f4 g2 e6e4 e2 d2 e2 c2 B4 A2 A6 e6 |d2 e2 c2 B4 A2 A6A4 e2
%W: B2
% voice 1 (1 lines, 36 notes)
a6a4 a2 d6d4 d2 |e2 ^f2 g2 f2 g2 a2 g6g4 g2 g4 e2 f4 g2 e6e4 e2 |d2 e2 c2 B4 A2 A6 e6 d2 e2 c2 B4 A2 A6A4 ||
